!!!ONB: MCCC : IJH0461_03 : Extracted Monophonic Melody
!!!COM: Haydn, Joseph
!!!OPR: String Quartet in G major
!!!OMV: 3
!!!SCT: Hob.III:29 ; Op.17 No.5
!!!ODT: 1771///
**kern
*thru
*k[b-e-]
*g:
*clefG
*M3/4
*MM70
8.dd
32ee-
32dd
4gg
4d
=1
4e-
4d
4r
=2
8.dd
32ee-
32dd
4ccc
4f#
=3
4f#
4g
4r
=4
8.dd
32ee-
32dd
4ddd
16ccc
16bb-
16aa
16gg
=5
2gg
16ff
16ee-
16dd
16cc
=6
2b-
8a
16g
16f#
=7
8.f#
16g
4d
4r
=8
8.d
32e-
32d
4g
4d
=9
4e-
4d
4r
=10
8.a-
16g
8f
8e-
8d
8c
=11
8B
8gg
4gg
8r
8dd
=12
4b
4r
4ff
=13
8ee-
8dd
4aa-
8gg
8dd
=14
4ee-
2r
=15
2.r
=16
4.r
8dd
8dd
8cc#
=17
8ee
8dd
2r
=18
4.r
8dd
8dd
8dd
=19
8ff
8ee-
2r
=20
4.r
8ee-
8.ff
16cc
=21
4dd-
2r
=22
4dd-
8cc
8b-
4r
=23
4.r
8b-
8b-
8a
=24
8dd-
8cc
2r
=25
2.r
=26
8.ff
32gg
32ff
8bb-
8ddd
16ccc
16bb-
16aa
16gg
=27
4ff
4ee-
4dd
=28
8cc
16ee-
16gg
8ff
16ee-
16dd
8cc
16b-
16a
=29
8.a
16b-
4f
4r
=30
8.f
32g
32f
8b-
8dd
16cc
16b-
16a
16g
=31
4f
4e-
8d
16ff
16dd
=32
4cc
4.gg
8b-
=33
4a
2ff
=34
8ff
8ee
2ee
=35
2ee-
4dd
=36
8cc
32ff
32ee-
32dd
32cc
4b-
8a
8ff
=37
8ff
8ee
2ee
=38
2ee-
4dd
=39
2gg
16ff
16ee-
16dd
16cc
=40
6..ff
24bb-
24aa
24bb-
24ddd
24ccc#
24ddd
24aa
24bb-
24ff
24aa-
24ff
=41
24gg
24bb-
24b
24cc
24ee-
24e
4f
4cc
=42
4b-
4.a-
8f#
=43
4f#
4g
8e-
16d
16c
=44
4c
4d
4r
=45
8.dd
32ee-
32dd
4gg
4d
=46
4e-
4d
4r
=47
8.dd
32ee-
32dd
4ccc
4f#
=48
4f#
4g
4r
=49
8.dd
48ff
48ee-
48dd
4aa-
4B
=50
4B
8.c
16g
8cc
8b
=51
8ee-
8dd
8cc
8b-
8a
8g
=52
4f#
4.r
8dd
=53
8dd
8a
16r
16a
16g
16a
8f#
8f#
=54
8r
8a
8a
8b-
4cc
=55
4.r
8cc
8dd
8a
=56
4b-
2r
=57
2gg
8.ff
16gg
=58
8ee-
8ee-
4.r
8ee-
=59
8ee-
8b-
8r
8b-
8b-
8cc
=60
8dd-
8dd-
8r
8dd-
8.ee-
16b-
=61
8dd-
8cc
2r
=62
2aa-
8gg
8ff
=63
8ee
8ee
2r
=64
2bb-
8.aa-
16ee
=65
4ff
2r
=66
2ccc
8aa-
8gg
=67
8ff#
8ff#
4.r
8gg
=68
8ee-
8dd
4.r
8f#
=69
8.g
32a
32g
8gg
8ff
8ee-
8dd
=70
8dd
8cc#
2cc#
=71
8.cc
32dd
32cc
8aa
8ff#
8ee-
8cc
=72
4b-
2b
=73
4cc
2cc#
=74
4dd
4ee-
4ff#
=75
6..gg
24bb-
24ff#
24gg
24ccc#
24ddd
24aa
24bb-
24ff#
24gg
24bb-
24dd
=76
24ee-
24gg
24b
24cc
24ee-
24c#
4d
4a
=77
4g
4.cc
16a
16f#
=78
4g
4.e-
16c
16A
=79
4A
4G
4r
==
*-
